src/pos-icons/vector-line.svg

<svg height="24" viewBox="0 0 24 24" width="24" xmlns="http://www.w3.org/2000/svg"><path d="m15 3v4.59l-7.41 7.41h-4.59v6h6v-4.58l7.42-7.42h4.58v-6m-4 2h2v2h-2m-12 10h2v2h-2"/></svg>

<?xml version="1.0" encoding="UTF-8"?><!DOCTYPE svg PUBLIC "-//W3C//DTD SVG 1.1//EN" "http://www.w3.org/Graphics/SVG/1.1/DTD/svg11.dtd"><svg xmlns="http://www.w3.org/2000/svg" xmlns:xlink="http://www.w3.org/1999/xlink" version="1.1" id="mdi-vector-line" width="24" height="24" viewBox="0 0 24 24"><path d="M15,3V7.59L7.59,15H3V21H9V16.42L16.42,9H21V3M17,5H19V7H17M5,17H7V19H5" /></svg>
